X:1
T:Title
%%score { ( 1 3 ) | ( 2 4 ) }
L:1/8
Q:1/4=144
M:6/4
K:Db
V:1 treble nm="Grand Piano"
V:3 treble 
V:2 bass 
V:4 bass 
V:1
 [A,F]4 E2[K:bass] [F,D]4 E2 | z6 A6[K:bass] | [CA]4 G2 [G,E]2 [A,F]2 G2 | [G,B]4 A2 [A,F]6 | %4
w: Mrs.~C.~H.~Morris * * *||||
 .B6 z6 | [F,A]4 =G2 [F,A]4 F2 | [=G,E]4 [G,B,]2 [G,C]4 [G,D]2 | E6 z6 | %8
w: ||||
 [A,F]4 E2[K:bass] [F,D]4 E2 | [A,F]4 B2 [F,A]6 | [CA]4 [B,G]2 [G,E]2 [A,F]2 G2 | %11
w: |||
 [G,B]4 A2 [A,F]6 | .[Dd]6 .d6 | d4 E2 G4 B2 | [A,DF]2 [A,DF]4 [A,CF]4[K:bass] [G,CE]2 | D12 | %16
w: |||||
 .[A,FA]4 [Fc]2 d2 c2 [FB]2 | .[FA]6 z6 | z6 .A6 | [DFA]4 [DF]2 [DFA]6 | %20
w: ||||
 [Fd]2 [Ec]2 [Ge]2 [Fd]2 c2 .[B,GB]2 | z6 d6 | A2 A4 e4 [EGc]2 | d12 |] %24
w: ||||
V:2
 D,,2 D,2 G,2 D,,2 D,2 G,2 | D,,2 F,,2 A,,2 .[D,F,]6 | A,,,2 A,,2 B,2 A,,,2 A,,2 B,2 | %3
 D,,2 D,2 F,2 D,,2 A,,2 D,2 | .[G,,G,]4 G,2 [G,,G,]2 [G,A,]2 B,2 | D,,2 D,2 _F,2 D,,2 D,2 A,2 | %6
 E,,2 E,2 D,2 C,4 B,,2 | z6 z2 G,4 | D,,2 D,2 G,2 D,,2 D,2 G,2 | D,,2 D,2 G,2 D,,2 A,,2 D,2 | %10
 D,,2 A,,2 D,2 A,,,2 A,,2 B,2 | D,,2 D,2 F,2 D,,2 A,,2 D,2 | %12
 [D,F,]2 E,2 [_F,=G,D]2 D2- [_G,D]2 [G,=A,D]2 | [F,A,D]4 [G,B,D]2 [B,D]4- [E,B,D]2 | %14
 A,,2 A,,4 A,,4 A,,2 | z4 G,2 F,6 | z2[K:treble] B2[K:bass] [A,,A,]2 [D,A,]4 [A,,A,]2 | %17
 D,4 A,,2 D,4 A,,2 | E,4 A,,2 E,4 A,,2 | D,4 A,,2 D,6 | [D,A,]4 [D,A,]2 z2 .A3 C | %21
 D,2 [E,CE]2 [F,_CD]2 .[G,B,D]6 | [A,CG]2 [A,CG]4[K:bass] [A,,CG]4 A,,2 | z2 A,2 B,2 .A,6 |] %24
V:3
 x6[K:bass] x6 | [A,F]6 z2[K:bass] A,,2 F,,2 | x12 | x12 | z2 G,2 B2 B2 c2 d2 | x12 | x12 | %7
 .G,6- .[G,A]6 | x6[K:bass] x6 | x12 | x12 | x12 | z2 G,2 d2 z2 B,2 d2 | x12 | x10[K:bass] x2 | %15
 F,4 B,2 A,6 | z6 .F6 | A,4- [A,DF]2 [A,FA]6 | [CEA]4 [CE]2 [CG]4- [CGB]2 | x12 | x12 | %21
 [DFA]2 G2 F2 z4 G2 | x12 | .[DF]4 G2 .F6 |] %24
V:4
 x12 | x12 | x12 | x12 | x12 | x12 | x12 | A,,2 C,2 E,2 .A,4 E,2 | x12 | x12 | x12 | x12 | %12
 z6 .[=F,A,]6 | z6 .G,6 | x12 | D,12 | .D,6[K:treble][K:bass] z6 | x12 | x12 | x12 | %20
 z6 [D,A,]4 D,2 | x12 | x6[K:bass] x6 | D,12 |] %24

